veiligh_install_type/162.svg

<?xml version="1.0" encoding="UTF-8" standalone="no"?>
<!-- Created with Inkscape (http://www.inkscape.org/) -->

<svg
   xmlns:dc="http://purl.org/dc/elements/1.1/"
   xmlns:cc="http://creativecommons.org/ns#"
   xmlns:rdf="http://www.w3.org/1999/02/22-rdf-syntax-ns#"
   xmlns:svg="http://www.w3.org/2000/svg"
   xmlns="http://www.w3.org/2000/svg"
   version="1.1"
   width="70.862503"
   height="57.6875"
   id="svg2"
   xml:space="preserve"><metadata
     id="metadata8"><rdf:RDF><cc:Work
         rdf:about=""><dc:format>image/svg+xml</dc:format><dc:type
           rdf:resource="http://purl.org/dc/dcmitype/StillImage" /><dc:title></dc:title></cc:Work></rdf:RDF></metadata><defs
     id="defs6"><clipPath
       id="clipPath18"><path
         d="m 0,0 566.934,0 0,461 L 0,461 0,0 z"
         id="path20" /></clipPath></defs><g
     transform="matrix(1.25,0,0,-1.25,0,57.6875)"
     id="g10"><rect
       width="68.198357"
       height="30.065943"
       rx="0.65697515"
       x="1.4666314"
       y="1.2221928"
       transform="matrix(0.8,0,0,-0.8,0,46.15)"
       id="rect3007"
       style="color:#000000;fill:#ffffff;fill-opacity:1;fill-rule:nonzero;stroke:none;stroke-width:1;marker:none;visibility:visible;display:inline;overflow:visible;enable-background:accumulate" /><g
       transform="scale(0.1,0.1)"
       id="g12"><g
         id="g14"><g
           clip-path="url(#clipPath18)"
           id="g16"><path
             d="M 554.18,448.711 12.75,208.254 l 541.43,0 0,240.457"
             id="path22"
             style="fill:#ed1c24;fill-opacity:1;fill-rule:nonzero;stroke:none" /><path
             d="m 541.438,435.961 c 0,-21.574 0,-193.379 0,-214.953 -23.704,0 -492.2192,0 -515.9419,0 0,21.574 0,193.379 0,214.953 23.7227,0 492.2379,0 515.9419,0 z m 12.742,25.5 -554.18,0 0,-265.953 566.934,0 0,265.953 -12.754,0"
             id="path24"
             style="fill:#231f20;fill-opacity:1;fill-rule:nonzero;stroke:none" /><path
             d="m 65.7812,74.1719 0,-43.6641 30.8868,0 c 12.027,0 19.664,0.332 22.898,1.0078 4.954,0.8789 8.993,3.0469 12.114,6.5039 3.121,3.4571 4.683,8.0743 4.683,13.875 0,4.8907 -1.207,9.0625 -3.609,12.461 -2.402,3.4257 -5.879,5.9101 -10.43,7.4804 -4.551,1.5547 -14.418,2.336 -29.6013,2.336 l -26.9415,0 z m 0,65.4961 0,-37.98 21.8008,0 c 12.977,0 21.031,0.187 24.172,0.558 5.703,0.676 10.172,2.637 13.441,5.891 3.25,3.25 4.887,7.515 4.887,12.82 0,5.09 -1.41,9.199 -4.215,12.371 -2.816,3.188 -6.988,5.11 -12.531,5.781 -3.301,0.371 -12.777,0.559 -28.4415,0.559 l -19.1133,0 z m -33.1992,27.52 65.7969,0 c 13.0161,0 22.7381,-0.547 29.1331,-1.629 6.414,-1.086 12.133,-3.364 17.183,-6.797 5.063,-3.457 9.266,-8.039 12.629,-13.782 3.367,-5.742 5.059,-12.148 5.059,-19.277 0,-7.715 -2.063,-14.805 -6.176,-21.25 -4.113,-6.4452 -9.684,-11.2694 -16.734,-14.4803 9.957,-2.9219 17.613,-7.8946 22.961,-14.9219 5.339,-7.0156 8.027,-15.2774 8.027,-24.7461 0,-7.4844 -1.75,-14.7305 -5.227,-21.7969 -3.476,-7.0547 -8.226,-12.6953 -14.261,-16.914 C 144.949,7.38281 137.52,4.78516 128.691,3.80859 123.145,3.21484 109.789,2.84375 88.6133,2.69531 l -56.0313,0 0,164.49269"
             id="path26"
             style="fill:#231f20;fill-opacity:1;fill-rule:nonzero;stroke:none" /><path
             d="m 198.164,2.69531 0,164.49269 49.774,0 29.628,-112.2153 29.426,112.2153 49.981,0 0,-164.49269 -30.801,0 L 326.016,132.18 293.281,2.69531 l -31.894,0 L 229.109,132.18 228.965,2.69531 l -30.801,0"
             id="path28"
             style="fill:#231f20;fill-opacity:1;fill-rule:nonzero;stroke:none" /><path
             d="m 495.371,63.4062 32.305,-9.871 C 522.703,35.4219 514.48,21.9648 502.961,13.1758 491.406,4.39453 476.797,0 459.07,0 c -21.941,0 -39.961,7.46094 -54.058,22.3945 -14.133,14.9297 -21.196,35.3477 -21.196,61.2383 0,27.3832 7.102,48.6522 21.274,63.8162 14.168,15.156 32.82,22.727 55.926,22.727 20.183,0 36.562,-5.946 49.199,-17.852 7.48,-7.031 13.125,-17.121 16.863,-30.301 l -32.898,-7.777 c -1.946,8.508 -6.055,15.219 -12.266,20.141 -6.199,4.91 -13.762,7.383 -22.656,7.383 -12.254,0 -22.246,-4.375 -29.871,-13.149 -7.657,-8.75 -11.477,-22.918 -11.477,-42.5272 0,-20.8008 3.778,-35.6055 11.328,-44.4219 7.52,-8.8516 17.317,-13.2657 29.383,-13.2657 8.899,0 16.567,2.8243 22.961,8.4415 6.387,5.6406 10.984,14.4804 13.789,26.5585"
             id="path30"
             style="fill:#231f20;fill-opacity:1;fill-rule:nonzero;stroke:none" /></g></g></g></g></svg>

<?xml version="1.0" encoding="UTF-8" standalone="no"?>
<!-- Created with Inkscape (http://www.inkscape.org/) -->

<svg
   xmlns:dc="http://purl.org/dc/elements/1.1/"
   xmlns:cc="http://creativecommons.org/ns#"
   xmlns:rdf="http://www.w3.org/1999/02/22-rdf-syntax-ns#"
   xmlns:svg="http://www.w3.org/2000/svg"
   xmlns="http://www.w3.org/2000/svg"
   xmlns:sodipodi="http://sodipodi.sourceforge.net/DTD/sodipodi-0.dtd"
   xmlns:inkscape="http://www.inkscape.org/namespaces/inkscape"
   version="1.1"
   width="125"
   height="125"
   id="svg2"
   xml:space="preserve"
   sodipodi:docname="162.svg"
   inkscape:version="0.92.5 (2060ec1f9f, 2020-04-08)"><sodipodi:namedview
     pagecolor="#ffffff"
     bordercolor="#666666"
     borderopacity="1"
     objecttolerance="10"
     gridtolerance="10"
     guidetolerance="10"
     inkscape:pageopacity="0"
     inkscape:pageshadow="2"
     inkscape:window-width="1920"
     inkscape:window-height="1017"
     id="namedview28882"
     showgrid="false"
     inkscape:zoom="4.0910076"
     inkscape:cx="35.431252"
     inkscape:cy="28.84375"
     inkscape:window-x="-8"
     inkscape:window-y="-8"
     inkscape:window-maximized="1"
     inkscape:current-layer="svg2" /><metadata
     id="metadata8"><rdf:RDF><cc:Work
         rdf:about=""><dc:format>image/svg+xml</dc:format><dc:type
           rdf:resource="http://purl.org/dc/dcmitype/StillImage" /><dc:title></dc:title></cc:Work></rdf:RDF></metadata><defs
     id="defs6"><clipPath
       id="clipPath18"><path
         d="M 0,0 H 566.934 V 461 H 0 Z"
         id="path20"
         inkscape:connector-curvature="0" /></clipPath></defs><g
     id="g29437"
     transform="matrix(0.91721435,0,0,0.91721435,30,36.015436)"><g
       id="g10"
       transform="matrix(1.25,0,0,-1.25,0,57.6875)"><rect
         style="color:#000000;display:inline;overflow:visible;visibility:visible;fill:#ffffff;fill-opacity:1;fill-rule:nonzero;stroke:none;stroke-width:1;marker:none;enable-background:accumulate"
         id="rect3007"
         transform="matrix(0.8,0,0,-0.8,0,46.15)"
         y="1.2221928"
         x="1.4666314"
         rx="0.65697515"
         height="30.065943"
         width="68.198357" /><g
         id="g12"
         transform="scale(0.1)"><g
           id="g14"><g
             id="g16"
             clip-path="url(#clipPath18)"><path
               style="fill:#ed1c24;fill-opacity:1;fill-rule:nonzero;stroke:none"
               id="path22"
               d="M 554.18,448.711 12.75,208.254 h 541.43 v 240.457"
               inkscape:connector-curvature="0" /><path
               style="fill:#231f20;fill-opacity:1;fill-rule:nonzero;stroke:none"
               id="path24"
               d="m 541.438,435.961 c 0,-21.574 0,-193.379 0,-214.953 -23.704,0 -492.2192,0 -515.9419,0 0,21.574 0,193.379 0,214.953 23.7227,0 492.2379,0 515.9419,0 z m 12.742,25.5 H 0 V 195.508 H 566.934 V 461.461 H 554.18"
               inkscape:connector-curvature="0" /><path
               style="fill:#231f20;fill-opacity:1;fill-rule:nonzero;stroke:none"
               id="path26"
               d="M 65.7812,74.1719 V 30.5078 H 96.668 c 12.027,0 19.664,0.332 22.898,1.0078 4.954,0.8789 8.993,3.0469 12.114,6.5039 3.121,3.4571 4.683,8.0743 4.683,13.875 0,4.8907 -1.207,9.0625 -3.609,12.461 -2.402,3.4257 -5.879,5.9101 -10.43,7.4804 -4.551,1.5547 -14.418,2.336 -29.6013,2.336 z m 0,65.4961 v -37.98 H 87.582 c 12.977,0 21.031,0.187 24.172,0.558 5.703,0.676 10.172,2.637 13.441,5.891 3.25,3.25 4.887,7.515 4.887,12.82 0,5.09 -1.41,9.199 -4.215,12.371 -2.816,3.188 -6.988,5.11 -12.531,5.781 -3.301,0.371 -12.777,0.559 -28.4415,0.559 z m -33.1992,27.52 h 65.7969 c 13.0161,0 22.7381,-0.547 29.1331,-1.629 6.414,-1.086 12.133,-3.364 17.183,-6.797 5.063,-3.457 9.266,-8.039 12.629,-13.782 3.367,-5.742 5.059,-12.148 5.059,-19.277 0,-7.715 -2.063,-14.805 -6.176,-21.25 -4.113,-6.4452 -9.684,-11.2694 -16.734,-14.4803 9.957,-2.9219 17.613,-7.8946 22.961,-14.9219 5.339,-7.0156 8.027,-15.2774 8.027,-24.7461 0,-7.4844 -1.75,-14.7305 -5.227,-21.7969 -3.476,-7.0547 -8.226,-12.6953 -14.261,-16.914 C 144.949,7.38281 137.52,4.78516 128.691,3.80859 123.145,3.21484 109.789,2.84375 88.6133,2.69531 H 32.582 V 167.188"
               inkscape:connector-curvature="0" /><path
               style="fill:#231f20;fill-opacity:1;fill-rule:nonzero;stroke:none"
               id="path28"
               d="M 198.164,2.69531 V 167.188 h 49.774 L 277.566,54.9727 306.992,167.188 h 49.981 V 2.69531 H 326.172 L 326.016,132.18 293.281,2.69531 H 261.387 L 229.109,132.18 228.965,2.69531 h -30.801"
               inkscape:connector-curvature="0" /><path
               style="fill:#231f20;fill-opacity:1;fill-rule:nonzero;stroke:none"
               id="path30"
               d="m 495.371,63.4062 32.305,-9.871 C 522.703,35.4219 514.48,21.9648 502.961,13.1758 491.406,4.39453 476.797,0 459.07,0 c -21.941,0 -39.961,7.46094 -54.058,22.3945 -14.133,14.9297 -21.196,35.3477 -21.196,61.2383 0,27.3832 7.102,48.6522 21.274,63.8162 14.168,15.156 32.82,22.727 55.926,22.727 20.183,0 36.562,-5.946 49.199,-17.852 7.48,-7.031 13.125,-17.121 16.863,-30.301 l -32.898,-7.777 c -1.946,8.508 -6.055,15.219 -12.266,20.141 -6.199,4.91 -13.762,7.383 -22.656,7.383 -12.254,0 -22.246,-4.375 -29.871,-13.149 -7.657,-8.75 -11.477,-22.918 -11.477,-42.5272 0,-20.8008 3.778,-35.6055 11.328,-44.4219 7.52,-8.8516 17.317,-13.2657 29.383,-13.2657 8.899,0 16.567,2.8243 22.961,8.4415 6.387,5.6406 10.984,14.4804 13.789,26.5585"
               inkscape:connector-curvature="0" /></g></g></g></g></g></svg>
